X:1
C: J. Battishill
M: none
L:1/2
%%staves [(1 2) (3 4)]
K:F
V:1 clef=treble
F2 | E F | B2 || A2 | d c | B B | A2 |]
V:2 clef=treble
C2 | B, C | C2 || C2 | D F | F E | F2 |]
V:3 clef=bass octave=-1
A2 | B A | G2 || F2 | F c | d c | c2 |]
V:4 clef=bass octave=-1
A2 | G F | E2 || F2 | B, A, | G, C | F2 |]
